public/static/images/signature/polywork.svg

<svg enable-background="new 0 0 24 24" viewBox="0 0 24 24" xmlns="http://www.w3.org/2000/svg"><path clip-rule="evenodd" d="m2 17.9v-11.8c0-2.3 1.8-4.1 4.1-4.1h11.9c2.2 0 4 1.8 4 4.1v5.7c0 2.3-1.8 4.1-4.1 4.1h-2.3v2.1c0 2.2-1.8 4.1-4.1 4.1h-5.4c-2.3-.1-4.1-1.9-4.1-4.2zm6.2-9.6h-5.1v-2.3c0-1.6 1.3-3 3-3h2.2v5.3zm9.7 6.6h-2.2v-5.4h5.2v2.4c0 1.6-1.3 3-3 3zm-6.3 6.1h-2.2v-4.9h5.2v1.9c0 1.6-1.4 3-3 3zm-2.2-6.1h5.2v-5.4h-5.2zm6.4-6.6h5.2v-2.2c0-1.7-1.4-3-3-3h-2.2zm-1.2 0h-5.2v-5.3h5.2zm-11.6 7.7v1.9c0 1.7 1.4 3 3 3h2.2v-4.9zm5.2-1.1h-5.2v-5.4h5.2z" fill="#fff" fill-rule="evenodd"/></svg>

<?xml version="1.0" encoding="utf-8"?>
<!-- Generator: Adobe Illustrator 25.4.1, SVG Export Plug-In . SVG Version: 6.00 Build 0)  -->
<svg version="1.1" id="Layer_1" xmlns="http://www.w3.org/2000/svg" xmlns:xlink="http://www.w3.org/1999/xlink" x="0px" y="0px"
	 viewBox="0 0 24 24" style="enable-background:new 0 0 24 24;" xml:space="preserve">
<style type="text/css">
	.st0{fill-rule:evenodd;clip-rule:evenodd;fill:#FFFFFF;}
</style>
<path class="st0" d="M2,17.9V6.1C2,3.8,3.8,2,6.1,2h11.9C20.2,2,22,3.8,22,6.1v5.7c0,2.3-1.8,4.1-4.1,4.1h-2.3v2.1
	c0,2.2-1.8,4.1-4.1,4.1H6.1C3.8,22,2,20.2,2,17.9z M8.2,8.3H3.1V6c0-1.6,1.3-3,3-3h2.2V8.3z M17.9,14.9h-2.2V9.5h5.2v2.4
	C20.9,13.5,19.6,14.9,17.9,14.9z M11.6,21H9.4v-4.9h5.2V18C14.6,19.6,13.2,21,11.6,21z M9.4,14.9h5.2V9.5H9.4V14.9z M15.8,8.3h5.2
	V6.1c0-1.7-1.4-3-3-3h-2.2V8.3z M14.6,8.3H9.4V3h5.2V8.3z M3,16v1.9c0,1.7,1.4,3,3,3h2.2V16H3z M8.2,14.9H3V9.5h5.2V14.9z"/>
</svg>
